public/images/hashed/43bdc4c54e1be00cd1fbecca504199fc.svg

<?xml version="1.0" encoding="UTF-8"?>
<svg width="80px" height="80px" viewBox="0 0 80 80" version="1.1" xmlns="http://www.w3.org/2000/svg" xmlns:xlink="http://www.w3.org/1999/xlink">
    <!-- Generator: Sketch 64 (93537) - https://sketch.com -->
    <title>Icon-Architecture/64/Arch_AWS-Cloud9_64</title>
    <desc>Created with Sketch.</desc>
    <defs>
        <linearGradient x1="0%" y1="100%" x2="100%" y2="0%" id="linearGradient-1">
            <stop stop-color="#2E27AD" offset="0%"></stop>
            <stop stop-color="#527FFF" offset="100%"></stop>
        </linearGradient>
    </defs>
    <g id="Icon-Architecture/64/Arch_AWS-Cloud9_64" stroke="none" stroke-width="1" fill="none" fill-rule="evenodd">
        <g id="Icon-Architecture-BG/64/Developer-Tools" fill="url(#linearGradient-1)">
            <rect id="Rectangle" x="0" y="0" width="80" height="80"></rect>
        </g>
        <path d="M43.441,42.6113776 C42.913,42.9106064 42.331,43.1433399 41.696,43.3095781 C41.06,43.4758164 40.429,43.5584317 39.802,43.5584317 C38.713,43.5584317 37.888,43.2561804 37.328,42.6486552 C36.766,42.0421376 36.486,41.1575487 36.486,39.9928736 C36.486,38.8957013 36.779,38.0191724 37.365,37.3622796 C37.95,36.7063942 38.73,36.3779477 39.704,36.3779477 C42.145,36.3779477 43.391,38.3395588 43.441,42.262781 L43.441,42.6113776 Z M39.753,34.3327138 C38.615,34.3327138 37.608,34.5866049 36.733,35.0933796 C35.859,35.6011618 35.186,36.2902949 34.716,37.1627937 C34.246,38.0352925 34.011,39.0296994 34.011,40.1429917 C34.011,41.8225016 34.477,43.1433399 35.409,44.1075216 C36.341,45.0717033 37.608,45.5532905 39.209,45.5532905 C39.967,45.5532905 40.71,45.4414575 41.436,45.216784 C42.162,44.993118 42.822,44.6807916 43.416,44.2818199 C43.3,46.3441814 42.835,47.8645056 42.017,48.8448074 C41.201,49.8271242 40.001,50.3167713 38.417,50.3167713 C37.278,50.3167713 36.032,50.0094825 34.679,49.3938973 L34.679,51.2890131 C35.768,52.0033337 37.129,52.3609978 38.763,52.3609978 C41.04,52.3609978 42.797,51.5217466 44.035,49.8432443 C45.272,48.1637344 45.891,45.7618439 45.891,42.6365652 C45.891,39.9263783 45.367,37.8660318 44.319,36.4525031 C43.271,35.0399819 41.75,34.3327138 39.753,34.3327138 L39.753,34.3327138 Z M56.875,55.9849912 L22.956,55.9849912 C18.195,55.9809612 14.268,52.4788758 14.017,48.0176463 C14.005,47.8141304 14,47.6045694 14,47.389971 C14,41.6482033 18.086,39.7208474 20.581,39.0800746 C20.593,39.0780596 20.606,39.0760446 20.62,39.0730221 C21.131,38.9682416 21.476,38.483632 21.412,37.9617447 C21.349,37.4579925 21.318,36.9401352 21.318,36.4222779 C21.318,31.7948102 24.608,26.8127008 28.808,25.0808007 C33.869,22.9942591 39.227,24.0340037 43.145,27.8615129 C44.672,29.3526195 45.863,31.2578103 46.685,33.5226802 C46.811,33.8692618 47.113,34.1181153 47.474,34.1735281 C47.835,34.2269258 48.197,34.0818452 48.42,33.7896689 C49.648,32.1685943 51.635,31.4885288 53.493,32.0597838 C55.652,32.7247367 57.05,34.9352014 57.231,37.9738347 C57.258,38.4302342 57.587,38.8110709 58.032,38.9017463 C61.667,39.6392395 66,41.7257812 66,47.4705714 C66,55.371421 59.015,55.9849912 56.875,55.9849912 L56.875,55.9849912 Z M59.159,37.0902534 C58.735,33.5649954 56.871,30.9918291 54.077,30.1324279 C51.934,29.47352 49.678,29.9631671 47.969,31.3756883 C47.09,29.4493399 45.94,27.7849426 44.538,26.4147366 C40.032,22.0129498 33.869,20.8160346 28.05,23.2159101 C23.072,25.2692041 19.318,30.9464914 19.318,36.4222779 C19.318,36.7295668 19.328,37.0368556 19.346,37.3421295 C16.627,38.2196658 12,40.6961117 12,47.389971 C12,47.6408396 12.007,47.8856632 12.02,48.1284717 C12.331,53.657656 17.133,57.9949625 22.955,58 L56.875,58 C62.253,58 68,55.2344004 68,47.4705714 C68,42.1479255 64.868,38.483632 59.159,37.0902534 L59.159,37.0902534 Z" id="AWS-Cloud9_Icon_64_Squid" fill="#FFFFFF"></path>
    </g>
</svg>

<svg xmlns="http://www.w3.org/2000/svg" width="80" height="80"><defs><linearGradient id="a" x1="0%" x2="100%" y1="100%" y2="0%"><stop offset="0%" stop-color="#2E27AD"/><stop offset="100%" stop-color="#527FFF"/></linearGradient></defs><g fill="none" fill-rule="evenodd"><path fill="url(#a)" d="M0 0h80v80H0z"/><path fill="#FFF" d="M43.441 42.611c-.528.3-1.11.532-1.745.699a7.463 7.463 0 0 1-1.894.248c-1.089 0-1.914-.302-2.474-.91-.562-.606-.842-1.49-.842-2.655 0-1.097.293-1.974.879-2.63.585-.657 1.365-.985 2.339-.985 2.441 0 3.687 1.962 3.737 5.885v.348Zm-3.688-8.278c-1.138 0-2.145.254-3.02.76a5.22 5.22 0 0 0-2.017 2.07c-.47.872-.705 1.867-.705 2.98 0 1.68.466 3 1.398 3.965.932.964 2.199 1.445 3.8 1.445.758 0 1.501-.112 2.227-.336a7.476 7.476 0 0 0 1.98-.935c-.116 2.062-.581 3.583-1.399 4.563-.816.982-2.016 1.472-3.6 1.472-1.139 0-2.385-.308-3.738-.923v1.895c1.089.714 2.45 1.072 4.084 1.072 2.277 0 4.034-.84 5.272-2.518 1.237-1.68 1.856-4.081 1.856-7.206 0-2.71-.524-4.771-1.572-6.184-1.048-1.413-2.569-2.12-4.566-2.12Zm17.122 21.652H22.956c-4.761-.004-8.688-3.506-8.939-7.967A10.689 10.689 0 0 1 14 47.39c0-5.742 4.086-7.67 6.581-8.31l.039-.007c.511-.105.856-.59.792-1.111a12.451 12.451 0 0 1-.094-1.54c0-4.627 3.29-9.61 7.49-11.341 5.061-2.087 10.419-1.047 14.337 2.78 1.527 1.492 2.718 3.397 3.54 5.662.126.346.428.595.789.65.361.054.723-.091.946-.383 1.228-1.621 3.215-2.301 5.073-1.73 2.159.665 3.557 2.875 3.738 5.914.027.456.356.837.801.928C61.667 39.639 66 41.726 66 47.47c0 7.9-6.985 8.514-9.125 8.514Zm2.284-18.895c-.424-3.525-2.288-6.098-5.082-6.958-2.143-.658-4.399-.169-6.108 1.244-.879-1.927-2.029-3.591-3.431-4.961-4.506-4.402-10.669-5.599-16.488-3.2-4.978 2.054-8.732 7.731-8.732 13.207 0 .308.01.615.028.92C16.627 38.22 12 40.696 12 47.39c0 .25.007.496.02.738.311 5.53 5.113 9.867 10.935 9.872h33.92C62.253 58 68 55.234 68 47.47c0-5.322-3.132-8.986-8.841-10.38Z"/></g></svg>
